data/cards/self-care/similing.svg

<svg width="512" height="512" viewBox="0 0 512 512" fill="none" xmlns="http://www.w3.org/2000/svg">
<g clip-path="url(#clip0)">
<path d="M401.793 510.965C413.343 510.965 422.351 500.836 420.866 489.382C410.285 407.759 340.505 344.711 256 344.711C171.495 344.711 101.715 407.759 91.1339 489.382C89.6489 500.836 98.6569 510.965 110.207 510.965H401.793Z" fill="#B9E6FF"/>
<path d="M324.564 391.037C324.564 353.17 293.867 322.473 256 322.473C218.133 322.473 187.436 353.17 187.436 391.037C187.436 428.904 218.133 448.234 256 448.234C293.867 448.234 324.564 428.904 324.564 391.037V391.037Z" fill="#8DAEE1"/>
<path d="M74.154 304.13C113.554 304.13 145.494 274.525 145.494 238.006C145.494 201.487 113.554 171.882 74.154 171.882C34.754 171.882 2.81396 201.487 2.81396 238.006C2.81396 274.525 34.754 304.13 74.154 304.13Z" fill="#FFD3BD"/>
<path d="M437.881 304.13C477.281 304.13 509.221 274.525 509.221 238.006C509.221 201.487 477.281 171.882 437.881 171.882C398.481 171.882 366.541 201.487 366.541 238.006C366.541 274.525 398.481 304.13 437.881 304.13Z" fill="#FFBE9D"/>
<path d="M453.257 238.005C453.257 340.121 364.942 405.173 256 405.173C147.058 405.173 58.7429 340.121 58.7429 238.005C58.7429 135.889 147.058 53.1074 256 53.1074C364.942 53.1074 453.257 135.888 453.257 238.005V238.005Z" fill="#FFD3BD"/>
<path d="M345.032 389.003C106.391 383.627 109.941 141.319 178.274 68.0254C107.981 96.3034 58.7429 161.761 58.7429 238.005C58.7429 340.121 147.058 405.173 256 405.173C288.036 405.174 318.284 399.542 345.032 389.003Z" fill="#FFBE9D"/>
<path d="M182.058 260.243C182.068 279.259 162.717 294.684 138.838 294.696C114.959 294.708 95.593 279.302 95.584 260.286C95.574 241.27 114.925 225.844 138.804 225.832C162.682 225.821 182.048 241.227 182.058 260.243V260.243Z" fill="#EDA1AB"/>
<path d="M329.943 260.17C329.953 279.186 349.318 294.592 373.197 294.58C397.076 294.568 416.426 279.143 416.417 260.127C416.407 241.111 397.042 225.704 373.163 225.717C349.283 225.728 329.933 241.153 329.943 260.17Z" fill="#EDA1AB"/>
<path d="M298.375 244.618C298.362 218.425 279.386 215.973 255.978 215.985C232.571 215.997 213.597 218.467 213.61 244.66C213.623 270.853 232.609 292.076 256.016 292.064C279.423 292.054 298.388 270.811 298.375 244.618V244.618Z" fill="white"/>
<path d="M143.42 230.294C139.279 230.294 135.922 226.939 135.92 222.798C135.916 215.298 138.833 208.245 144.134 202.939C149.435 197.632 156.485 194.708 163.985 194.704H163.999C179.477 194.704 192.072 207.291 192.08 222.77C192.082 226.912 188.726 230.272 184.584 230.274C184.582 230.274 184.581 230.274 184.58 230.274C180.439 230.274 177.082 226.919 177.08 222.778C177.076 215.568 171.209 209.704 163.999 209.704C163.997 209.704 163.995 209.704 163.993 209.704C160.5 209.706 157.216 211.068 154.746 213.54C152.277 216.012 150.918 219.297 150.92 222.791C150.922 226.933 147.566 230.293 143.424 230.295C143.423 230.294 143.421 230.294 143.42 230.294V230.294Z" fill="#4E5660"/>
<path d="M327.382 230.202C323.241 230.202 319.884 226.847 319.882 222.705C319.879 215.205 322.796 208.152 328.096 202.846C333.397 197.539 340.447 194.615 347.948 194.612H347.963C363.44 194.612 376.034 207.199 376.042 222.677C376.044 226.819 372.688 230.179 368.546 230.181C368.545 230.181 368.543 230.181 368.542 230.181C364.401 230.181 361.044 226.826 361.042 222.685C361.038 215.475 355.171 209.612 347.962 209.612C347.96 209.612 347.958 209.612 347.955 209.612C344.461 209.614 341.177 210.976 338.708 213.448C336.239 215.92 334.88 219.205 334.881 222.699C334.883 226.841 331.527 230.2 327.384 230.202C327.385 230.202 327.383 230.202 327.382 230.202V230.202Z" fill="#4E5660"/>
<path d="M332.469 288.888L337.713 276.374C340.593 269.502 350.328 269.502 353.208 276.374L358.452 288.888C359.304 290.921 360.92 292.537 362.953 293.389L375.467 298.633C382.338 301.513 382.338 311.248 375.467 314.128L362.953 319.372C360.92 320.224 359.304 321.84 358.452 323.873L353.208 336.387C350.329 343.258 340.593 343.258 337.713 336.387L332.469 323.873C331.617 321.84 330.001 320.224 327.968 319.372L315.454 314.128C308.583 311.249 308.583 301.513 315.454 298.633L327.968 293.389C330.001 292.537 331.617 290.92 332.469 288.888V288.888Z" fill="#6DC8DD"/>
<path d="M48.15 83.205L42.906 95.719C40.026 102.591 30.291 102.591 27.411 95.719L22.167 83.205C21.315 81.172 19.699 79.556 17.666 78.704L5.154 73.46C-1.718 70.581 -1.718 60.845 5.154 57.965L17.668 52.721C19.701 51.869 21.317 50.253 22.169 48.22L27.413 35.706C30.292 28.835 40.028 28.835 42.908 35.706L48.152 48.22C49.004 50.253 50.62 51.869 52.653 52.721L65.167 57.965C72.038 60.845 72.038 70.58 65.167 73.46L52.653 78.704C50.619 79.556 49.002 81.172 48.15 83.205V83.205Z" fill="#81DCD9"/>
<path d="M244.718 5.25391C251.196 -0.371094 260.803 -0.371094 267.281 5.25391C298.978 32.7789 353.352 43.4439 387.058 68.5749C436.032 105.089 455.009 160.168 457.301 201.136C457.833 210.648 447.719 217.021 439.284 212.593C407.208 195.753 374.142 161.673 348.794 119.068C326.065 130.629 281.644 133.298 256 133.298C230.356 133.298 185.935 130.629 163.205 119.068C137.857 161.674 104.792 195.753 72.7161 212.593C64.2811 217.021 54.1671 210.648 54.6991 201.136C56.9911 160.168 75.9681 105.089 124.942 68.5749C158.648 43.4439 213.021 32.7779 244.718 5.25391V5.25391Z" fill="#4E5660"/>
<path d="M169.963 44.4648C153.557 51.5578 137.755 59.0208 124.941 68.5738C75.9671 105.088 56.9901 160.167 54.6981 201.135C54.1661 210.646 64.2801 217.02 72.7151 212.592C104.791 195.752 137.857 161.673 163.204 119.067C169.401 122.219 177.216 124.705 185.817 126.661C168.112 107.097 162.425 67.3938 169.963 44.4648V44.4648Z" fill="#3A4351"/>
<path d="M463.85 77.0241L469.094 89.5381C471.973 96.4091 481.709 96.4091 484.589 89.5381L489.833 77.0241C490.685 74.9911 492.301 73.3751 494.334 72.5231L506.848 67.2791C513.719 64.4001 513.719 54.6641 506.848 51.7841L494.334 46.5401C492.301 45.6881 490.685 44.0721 489.833 42.0391L484.589 29.5251C481.71 22.6531 471.974 22.6531 469.094 29.5251L463.85 42.0401C462.998 44.0731 461.382 45.6891 459.349 46.5411L446.835 51.7851C439.964 54.6641 439.964 64.4001 446.835 67.2801L459.349 72.5241C461.381 73.3751 462.998 74.9911 463.85 77.0241Z" fill="#8BD5FD"/>
<path d="M123.971 409.925C106.638 432.54 94.9779 459.733 91.1339 489.382C89.6489 500.836 98.6569 510.965 110.207 510.965H154.619C161.108 471.813 140.776 430.904 123.971 409.925Z" fill="#8DAEE1"/>
<path d="M388.03 409.925C405.363 432.54 417.023 459.733 420.867 489.382C422.352 500.836 413.344 510.965 401.794 510.965H357.382C350.892 471.813 371.224 430.904 388.03 409.925V409.925Z" fill="#8DAEE1"/>
</g>
<defs>
<clipPath id="clip0">
<rect width="512" height="512" fill="white"/>
</clipPath>
</defs>
</svg>

<svg xmlns="http://www.w3.org/2000/svg" width="512" height="512" fill="none"><g clip-path="url(#a)"><path fill="#B9E6FF" d="M401.793 510.965c11.55 0 20.558-10.129 19.073-21.583C410.285 407.759 340.505 344.711 256 344.711c-84.505 0-154.285 63.048-164.866 144.671-1.485 11.454 7.523 21.583 19.073 21.583h291.586Z"/><path fill="#8DAEE1" d="M324.564 391.037c0-37.867-30.697-68.564-68.564-68.564-37.867 0-68.564 30.697-68.564 68.564 0 37.867 30.697 57.197 68.564 57.197 37.867 0 68.564-19.33 68.564-57.197Z"/><path fill="#FFD3BD" d="M74.154 304.13c39.4 0 71.34-29.605 71.34-66.124 0-36.519-31.94-66.124-71.34-66.124-39.4 0-71.34 29.605-71.34 66.124 0 36.519 31.94 66.124 71.34 66.124Z"/><path fill="#FFBE9D" d="M437.881 304.13c39.4 0 71.34-29.605 71.34-66.124 0-36.519-31.94-66.124-71.34-66.124-39.4 0-71.34 29.605-71.34 66.124 0 36.519 31.94 66.124 71.34 66.124Z"/><path fill="#FFD3BD" d="M453.257 238.005c0 102.116-88.315 167.168-197.257 167.168-108.942 0-197.257-65.052-197.257-167.168S147.058 53.107 256 53.107c108.942 0 197.257 82.781 197.257 184.898Z"/><path fill="#FFBE9D" d="M345.032 389.003c-238.641-5.376-235.091-247.684-166.758-320.978-70.293 28.278-119.531 93.736-119.531 169.98 0 102.116 88.315 167.168 197.257 167.168 32.036.001 62.284-5.631 89.032-16.17Z"/><path fill="#EDA1AB" d="M182.058 260.243c.01 19.016-19.341 34.441-43.22 34.453-23.879.012-43.245-15.394-43.254-34.41-.01-19.016 19.341-34.442 43.22-34.454 23.878-.011 43.244 15.395 43.254 34.411Zm147.885-.073c.01 19.016 19.375 34.422 43.254 34.41 23.879-.012 43.229-15.437 43.22-34.453-.01-19.016-19.375-34.423-43.254-34.41-23.88.011-43.23 15.436-43.22 34.453Z"/><path fill="#fff" d="M298.375 244.618c-.013-26.193-18.989-28.645-42.397-28.633-23.407.012-42.381 2.482-42.368 28.675.013 26.193 18.999 47.416 42.406 47.404 23.407-.01 42.372-21.253 42.359-47.446Z"/><path fill="#4E5660" d="M143.42 230.294a7.5 7.5 0 0 1-7.5-7.496c-.004-7.5 2.913-14.553 8.214-19.859 5.301-5.307 12.351-8.231 19.851-8.235h.014c15.478 0 28.073 12.587 28.081 28.066a7.5 7.5 0 0 1-7.496 7.504h-.004a7.5 7.5 0 0 1-7.5-7.496c-.004-7.21-5.871-13.074-13.081-13.074h-.006a12.997 12.997 0 0 0-9.247 3.836 12.994 12.994 0 0 0-3.826 9.251 7.5 7.5 0 0 1-7.496 7.504l-.004-.001Zm183.962-.092a7.5 7.5 0 0 1-7.5-7.497c-.003-7.5 2.914-14.553 8.214-19.859 5.301-5.307 12.351-8.231 19.852-8.234h.015c15.477 0 28.071 12.587 28.079 28.065a7.5 7.5 0 0 1-7.496 7.504h-.004a7.5 7.5 0 0 1-7.5-7.496c-.004-7.21-5.871-13.073-13.08-13.073h-.007a12.994 12.994 0 0 0-9.247 3.836 13 13 0 0 0-3.827 9.251 7.5 7.5 0 0 1-7.497 7.503h-.002Z"/><path fill="#6DC8DD" d="m332.469 288.888 5.244-12.514c2.88-6.872 12.615-6.872 15.495 0l5.244 12.514a8.4 8.4 0 0 0 4.501 4.501l12.514 5.244c6.871 2.88 6.871 12.615 0 15.495l-12.514 5.244a8.4 8.4 0 0 0-4.501 4.501l-5.244 12.514c-2.879 6.871-12.615 6.871-15.495 0l-5.244-12.514a8.4 8.4 0 0 0-4.501-4.501l-12.514-5.244c-6.871-2.879-6.871-12.615 0-15.495l12.514-5.244a8.403 8.403 0 0 0 4.501-4.501Z"/><path fill="#81DCD9" d="m48.15 83.205-5.244 12.514c-2.88 6.872-12.615 6.872-15.495 0l-5.244-12.514a8.4 8.4 0 0 0-4.501-4.501L5.154 73.46c-6.872-2.879-6.872-12.615 0-15.495l12.514-5.244a8.4 8.4 0 0 0 4.501-4.501l5.244-12.514c2.879-6.871 12.615-6.871 15.495 0l5.244 12.514a8.4 8.4 0 0 0 4.501 4.501l12.514 5.244c6.871 2.88 6.871 12.615 0 15.495l-12.514 5.244a8.4 8.4 0 0 0-4.503 4.501Z"/><path fill="#4E5660" d="M244.718 5.254a17.193 17.193 0 0 1 22.563 0c31.697 27.525 86.071 38.19 119.777 63.32 48.974 36.515 67.951 91.594 70.243 132.562.532 9.512-9.582 15.885-18.017 11.457-32.076-16.84-65.142-50.92-90.49-93.525-22.729 11.561-67.15 14.23-92.794 14.23-25.644 0-70.065-2.669-92.795-14.23-25.348 42.606-58.413 76.685-90.489 93.525-8.435 4.428-18.549-1.945-18.017-11.457 2.292-40.968 21.27-96.047 70.243-132.561 33.706-25.131 88.079-35.797 119.776-63.321Z"/><path fill="#3A4351" d="M169.963 44.465c-16.406 7.093-32.208 14.556-45.022 24.109-48.974 36.514-67.95 91.593-70.243 132.561-.532 9.511 9.582 15.885 18.017 11.457 32.076-16.84 65.142-50.919 90.489-93.525 6.197 3.152 14.012 5.638 22.613 7.594-17.705-19.564-23.392-59.267-15.854-82.196Z"/><path fill="#8BD5FD" d="m463.85 77.024 5.244 12.514c2.879 6.871 12.615 6.871 15.495 0l5.244-12.514a8.4 8.4 0 0 1 4.501-4.5l12.514-5.245c6.871-2.879 6.871-12.615 0-15.495l-12.514-5.244a8.4 8.4 0 0 1-4.501-4.5l-5.244-12.515c-2.879-6.872-12.615-6.872-15.495 0L463.85 42.04a8.4 8.4 0 0 1-4.501 4.501l-12.514 5.244c-6.871 2.88-6.871 12.615 0 15.495l12.514 5.244a8.398 8.398 0 0 1 4.501 4.5Z"/><path fill="#8DAEE1" d="M123.971 409.925c-17.333 22.615-28.993 49.808-32.837 79.457-1.485 11.454 7.523 21.583 19.073 21.583h44.412c6.489-39.152-13.843-80.061-30.648-101.04Zm264.059 0c17.333 22.615 28.993 49.808 32.837 79.457 1.485 11.454-7.523 21.583-19.073 21.583h-44.412c-6.49-39.152 13.842-80.061 30.648-101.04Z"/></g><defs><clipPath id="a"><path fill="#fff" d="M0 0h512v512H0z"/></clipPath></defs></svg>
